X: 66
T: No_29_I_Will_Find_Game.krn
N: Derived from No_29_I_Will_Find_Game.krn
%%abc-version 2.0
%%abcx-abcm2ps-target-version 5.9.1 (29 Sep 2008)
%%abc-creator hum2abc beta
%%abcx-conversion-date 2019/03/15 08:35:44
%%humdrum-veritas 405334732
%%humdrum-veritas-data 3117930647
%%linebreak <none>
%%barnumbers 0
L: 1/8
M: 2/4
K: G clef=bass
[K:clef=bass][M:2/4]D2DD | 
D2D3/B,/ ||  
[M:3/4]A,2A,G, G,/G,/E,/ z/ ||  
[M:2/4]G,2G,G, | 
G,2G,3/E,/ ||  
[M:3/4]E,2D,D, D, z ||  
[M:2/4]G,2G,G, | 
G,2G,3/A,/ ||  
[M:3/4]A,2G,G, (G,/G,/)E,/ z/ ||  
[M:2/4]G,2G,G, | 
G,2G,3/E,/ | 
E,2D,D, | 
D,2D,2 | 
D,2D, z ||  
[M:5/8]G,2G,G,G, ||  
[M:2/4]D2DD | 
D2D3/B,/ ||  
[M:3/4]A,2G,G, G,G,/E,/ ||  
[M:2/4]G,2G,G, | 
G,2G,3/E,/ | 
E,2D,D, | 
D,2D,2 | 
D,2D, z |]  



